X:0318
T:Giga.
M:6/8
L:1/8
Q:3/8=120
I: :: ::
Z:Jack Campin * www.campin.me.uk * 2009
K:G
  GBd dBd |dBd dBd |dgb dcB|cAA A3 |
  GBd dBd |dBd dBd |gbz Acz|BGG G3:|
  afd d^cd|afd d2=c|Bdg dcB|cAA A2
c|B2d g2a |bag fed |gbz Acz|BGG G3:|
<end>
<start>
